X:16221
T:Sweet Molly
M:C|
L:1/8
K:EDor
% alternate bars are in D major
% there is only one unimportant c; both modes are nearly hexatonic
   e|E/E/E BE dEBe|dBAF  DEF
   d|E/E/E BE dEBe|dBAF  B2E:|
   F|Eeef     gfed|BdAF  DEF
[1 D|Eeef     gfed|BdAF  B2E
[2 f|afge     fdec|d>BAF B2E|]
